X:1
T:St. Peter Port, 76.76
T:St. Peter Port, 76.76
T:William de Prelaz Crousaz, 1877
T:Public Domain Courtesy of the Cyber Hymnal™
C:William de Prelaz Crousaz, 1877
Z:Public Domain
Z:Courtesy of the Cyber Hymnal™
%%score ( 1 2 ) ( 3 4 )
L:1/8
Q:1/4=110
M:4/4
K:Eb
V:1 treble 
V:2 treble 
V:3 bass 
V:4 bass 
V:1
 [EG]2 | [EA]2 [DF]2 [B,G]2 [=A,E]2 | [B,E]4 [B,D]2 [B,E]2 | [CF]2 [Ec]2 A3 (z A) | [EG]6 [FG]2 | %5
 [=Ec]3 [EG] [FA]2 [EA]2 | [DB]4 [EG]2 G2 | [CG]2 [CF]2 [B,E]2 [B,D]2 | [B,E]6 |] %9
V:2
 x2 | x8 | x8 | x4 E2 D2 x | x8 | x8 | x6 (ED) | x8 | x6 |] %9
V:3
 [E,B,]2 | [E,C]2 [E,A,]2 [E,G,]2 [C,F,]2 | [B,,G,]4 [B,,F,]2 [E,G,]2 | %3
 [A,,E,]2 [A,,A,]2 [B,,F,]2 [B,,B,]2 x | [E,B,]6 [D,=B,]2 | [C,C]3 [C,C] [F,C]2 [F,C]2 | %6
 [B,,B,]4 [E,B,]2 [E,B,]2 | [A,,B,]2 [A,,A,]2 [B,,G,]2 (F,A,) | [E,G,]6 |] %9
V:4
 x2 | x8 | x8 | x9 | x8 | x8 | x8 | x6 B,,2 | x6 |] %9

